img/favicon.svg

<svg fill="none" height="40" viewBox="0 0 41 40" width="41" xmlns="http://www.w3.org/2000/svg"><path d="m29.7873 25.4665 3.0349-2.0169 4.2224 2.4693c.7414.4273 1.2755.842 1.6023 1.2442.3267.3895.4901.8482.4901 1.376 0 .5153-.1634.9739-.4901 1.3761-.3268.3895-.8609.798-1.6023 1.2252l-13.8926 8.0679c-.4524.2639-.8671.4587-1.2441.5843-.377.1383-.7477.2074-1.1121.2074-.3645 0-.7352-.0691-1.1122-.2074-.3644-.1256-.7791-.3204-1.2441-.5843l-13.89254-8.0679c-.74144-.4272-1.27553-.8357-1.60227-1.2252-.32673-.4022-.4901-.8608-.4901-1.3761 0-.5278.16337-.9865.4901-1.376.32674-.4022.86083-.8169 1.60227-1.2442l4.48633-2.6013 3.22341 1.885-5.54198 3.148c-.08797.0503-.13195.1131-.13195.1885 0 .0628.04398.1194.13195.1697l13.32708 7.6154c.289.1508.5403.2262.754.2262.2262 0 .4838-.0754.7728-.2262l13.3271-7.6154c.088-.0503.1319-.1069.1319-.1697 0-.0754-.0439-.1382-.1319-.1885zm-.3582-8.4825 3.0726-1.9981 4.5429 2.6578c.7414.4273 1.2755.842 1.6023 1.2441.3267.3896.4901.8483.4901 1.3761s-.1634.9865-.4901 1.3761c-.3268.3895-.8609.8042-1.6023 1.2441l-13.8926 8.0678c-.4524.2514-.8671.4462-1.2441.5844-.377.1257-.7477.1885-1.1121.1885-.3645 0-.7352-.0628-1.1122-.1885-.3644-.1382-.7791-.333-1.2441-.5844l-13.89254-8.0678c-.74144-.4399-1.27553-.8546-1.60227-1.2441-.32673-.3896-.4901-.8483-.4901-1.3761s.16337-.9865.4901-1.3761c.32674-.4021.86083-.8168 1.60227-1.2441l4.91988-2.8463 3.11026 1.9415-5.86238 3.3365c-.08797.0503-.13195.1131-.13195.1885 0 .0628.04398.1194.13195.1697l13.32708 7.6154c.289.1508.5403.2262.754.2262.2262 0 .4838-.0754.7728-.2262l13.3271-7.6154c.088-.0503.1319-.1069.1319-.1697 0-.0754-.0439-.1382-.1319-.1885zm-8.6333 5.9378c-.3645 0-.7352-.0629-1.1122-.1885-.3644-.1257-.7791-.3205-1.2441-.5844l-13.89254-8.0678c-.74144-.4399-1.27553-.8546-1.60227-1.2442-.32673-.3895-.4901-.8482-.4901-1.376 0-.5404.16337-1.0054.4901-1.3949.32674-.38959.86083-.8043 1.60227-1.24413l13.89254-8.067864c.465-.263902.8797-.452404 1.2441-.565505.377-.1256672.7477-.188501 1.1122-.188501.3644 0 .7351.0628338 1.1121.188501.377.113101.7917.301603 1.2441.565505l13.8926 8.067864c.7414.43983 1.2755.85454 1.6023 1.24413.3267.3895.4901.8545.4901 1.3949 0 .5278-.1634.9865-.4901 1.376-.3268.3896-.8609.8043-1.6023 1.2442l-13.8926 8.0678c-.4524.2639-.8671.4587-1.2441.5844-.377.1256-.7477.1885-1.1121.1885zm0-3.4496c.2262 0 .4838-.0817.7728-.2451l13.3271-7.6154c.088-.0377.1319-.088.1319-.1508 0-.0754-.0439-.132-.1319-.1697l-13.3271-7.61542c-.289-.16337-.5466-.24505-.7728-.24505-.2137 0-.465.08168-.754.24505l-13.32708 7.61542c-.08797.0377-.13195.0943-.13195.1697 0 .0628.04398.1131.13195.1508l13.32708 7.6154c.289.1634.5403.2451.754.2451z" fill="#fff"/></svg>

<svg width="41" height="40" viewBox="0 0 41 40" fill="none" xmlns="http://www.w3.org/2000/svg">
<path d="M29.7873 25.4665L32.8222 23.4496L37.0446 25.9189C37.786 26.3462 38.3201 26.7609 38.6469 27.1631C38.9736 27.5526 39.137 28.0113 39.137 28.5391C39.137 29.0544 38.9736 29.513 38.6469 29.9152C38.3201 30.3047 37.786 30.7132 37.0446 31.1404L23.152 39.2083C22.6996 39.4722 22.2849 39.667 21.9079 39.7926C21.5309 39.9309 21.1602 40 20.7958 40C20.4313 40 20.0606 39.9309 19.6836 39.7926C19.3192 39.667 18.9045 39.4722 18.4395 39.2083L4.54696 31.1404C3.80552 30.7132 3.27143 30.3047 2.94469 29.9152C2.61796 29.513 2.45459 29.0544 2.45459 28.5391C2.45459 28.0113 2.61796 27.5526 2.94469 27.1631C3.27143 26.7609 3.80552 26.3462 4.54696 25.9189L9.03329 23.3176L12.2567 25.2026L6.71472 28.3506C6.62675 28.4009 6.58277 28.4637 6.58277 28.5391C6.58277 28.6019 6.62675 28.6585 6.71472 28.7088L20.0418 36.3242C20.3308 36.475 20.5821 36.5504 20.7958 36.5504C21.022 36.5504 21.2796 36.475 21.5686 36.3242L34.8957 28.7088C34.9837 28.6585 35.0276 28.6019 35.0276 28.5391C35.0276 28.4637 34.9837 28.4009 34.8957 28.3506L29.7873 25.4665ZM29.4291 16.984L32.5017 14.9859L37.0446 17.6437C37.786 18.071 38.3201 18.4857 38.6469 18.8878C38.9736 19.2774 39.137 19.7361 39.137 20.2639C39.137 20.7917 38.9736 21.2504 38.6469 21.64C38.3201 22.0295 37.786 22.4442 37.0446 22.8841L23.152 30.9519C22.6996 31.2033 22.2849 31.3981 21.9079 31.5363C21.5309 31.662 21.1602 31.7248 20.7958 31.7248C20.4313 31.7248 20.0606 31.662 19.6836 31.5363C19.3192 31.3981 18.9045 31.2033 18.4395 30.9519L4.54696 22.8841C3.80552 22.4442 3.27143 22.0295 2.94469 21.64C2.61796 21.2504 2.45459 20.7917 2.45459 20.2639C2.45459 19.7361 2.61796 19.2774 2.94469 18.8878C3.27143 18.4857 3.80552 18.071 4.54696 17.6437L9.46684 14.7974L12.5771 16.7389L6.71472 20.0754C6.62675 20.1257 6.58277 20.1885 6.58277 20.2639C6.58277 20.3267 6.62675 20.3833 6.71472 20.4336L20.0418 28.049C20.3308 28.1998 20.5821 28.2752 20.7958 28.2752C21.022 28.2752 21.2796 28.1998 21.5686 28.049L34.8957 20.4336C34.9837 20.3833 35.0276 20.3267 35.0276 20.2639C35.0276 20.1885 34.9837 20.1257 34.8957 20.0754L29.4291 16.984ZM20.7958 22.9218C20.4313 22.9218 20.0606 22.8589 19.6836 22.7333C19.3192 22.6076 18.9045 22.4128 18.4395 22.1489L4.54696 14.0811C3.80552 13.6412 3.27143 13.2265 2.94469 12.8369C2.61796 12.4474 2.45459 11.9887 2.45459 11.4609C2.45459 10.9205 2.61796 10.4555 2.94469 10.066C3.27143 9.67641 3.80552 9.2617 4.54696 8.82187L18.4395 0.754006C18.9045 0.490104 19.3192 0.301602 19.6836 0.188501C20.0606 0.0628338 20.4313 0 20.7958 0C21.1602 0 21.5309 0.0628338 21.9079 0.188501C22.2849 0.301602 22.6996 0.490104 23.152 0.754006L37.0446 8.82187C37.786 9.2617 38.3201 9.67641 38.6469 10.066C38.9736 10.4555 39.137 10.9205 39.137 11.4609C39.137 11.9887 38.9736 12.4474 38.6469 12.8369C38.3201 13.2265 37.786 13.6412 37.0446 14.0811L23.152 22.1489C22.6996 22.4128 22.2849 22.6076 21.9079 22.7333C21.5309 22.8589 21.1602 22.9218 20.7958 22.9218ZM20.7958 19.4722C21.022 19.4722 21.2796 19.3905 21.5686 19.2271L34.8957 11.6117C34.9837 11.574 35.0276 11.5237 35.0276 11.4609C35.0276 11.3855 34.9837 11.3289 34.8957 11.2912L21.5686 3.67578C21.2796 3.51241 21.022 3.43073 20.7958 3.43073C20.5821 3.43073 20.3308 3.51241 20.0418 3.67578L6.71472 11.2912C6.62675 11.3289 6.58277 11.3855 6.58277 11.4609C6.58277 11.5237 6.62675 11.574 6.71472 11.6117L20.0418 19.2271C20.3308 19.3905 20.5821 19.4722 20.7958 19.4722Z" fill="white" style="fill:white;fill-opacity:1;"/>
</svg>
